X:4
T:Coucher de soleil (derrière un volet bloqué)
C:Bruno Scherrer
L:1/16
M:3/4
K:C
V:1
|:"^A""Dm7"c8c4|c4B4A2B2-|"CΔ"B8G2E2-|E12|
"Dm7"c8-c2c2|c4d4c2B2-|"CΔ"B8G2E2-|E12|
"EbΔ"_B8_B4|_B4A4G4|"BbΔ"F8D2_B,2-|_B,8-_B,4|
"AbΔ9"D6_E6|C12|z12|z12:| 
"^B""Ebm7"_d8_d4 | _d4c4_B2c2-|"DbΔ"c8_A2F2-|F12|
"Ebm7"z4_d4_d4|_d4_e4_d2c2-|"DbΔ"c8_A2f2-|f12|
"EΔ"B8B4|B4^A4^G4|"BΔ"^F8^D2B2-|B12|
"AΔ"B6A6|A4z8|z12|z12||
%%begintext
Morceau lent. Tout au long du morceau: A calme, B plus soutenu

Intro sur les 2 accords Dm7 CΔ
Thème (AAB)
Solos sur la grille (AAB)
Solo de batterie sur les 2 accords Dm7 CΔ
Thème (AAB) + fin avec A (arrêt sur la dernière note du thème)
%%endtext

